X:55
T: Graserin und Reiter
N: Q0149C
O: Osteuropa, Tschechoslowakei, Eger
N: Verzierung (Vorschlag) .
R: Ballade, Verfuehrung, Verlassen des Elternhauses
M: 6/8
L: 1/16
K: G
D2 | B2B2A2G2G2ED | D4B,2D4
D2 | E2E2E2F4F2 | G6z4
D2 | c4c2c4D2 | B6d4
D2 | c4c2c4D2 | B6d4
cA | A4c2c4F2 | G6z4

@@@ Tune index: 1658
